src/icons/share.svg

<svg xmlns="http://www.w3.org/2000/svg" width="512" height="512" viewBox="0 0 512 512">
    <path d="M336 351H128V201.3h47.9s11.8-16.4 35.6-31.8H112c-8.8 0-16 7.1-16 15.9V367c0 8.8 7.2 15.9 16 15.9h240c8.8 0 16-7.1 16-15.9v-90.9l-32 26.2V351zm-26.7-128.2V276L416 196.4l-106.7-80.3v49.8c-129 0-133.3 136.9-133.3 136.9 36.5-59.6 63.3-80 133.3-80z"/>
</svg>

<?xml version="1.0" encoding="UTF-8"?>
<svg width="512px" height="512px" viewBox="0 0 512 512" version="1.1" xmlns="http://www.w3.org/2000/svg" xmlns:xlink="http://www.w3.org/1999/xlink">
    <!-- Generator: Sketch 62 (91390) - https://sketch.com -->
    <title>share</title>
    <desc>Created with Sketch.</desc>
    <g id="share" stroke="none" stroke-width="1" fill="none" fill-rule="evenodd">
        <path d="M336,351 L128,351 L128,201.3 L175.9,201.3 C175.9,201.3 187.7,184.9 211.5,169.5 L112,169.5 C103.2,169.5 96,176.6 96,185.4 L96,367 C96,375.8 103.2,382.9 112,382.9 L352,382.9 C360.8,382.9 368,375.8 368,367 L368,276.1 L336,302.3 L336,351 Z M309.3,222.8 L309.3,276 L416,196.4 L309.3,116.1 L309.3,165.9 C180.3,165.9 176,302.8 176,302.8 C212.5,243.2 239.3,222.8 309.3,222.8 Z" id="Shape" fill="#000000" fill-rule="nonzero"></path>
    </g>
</svg>
